Newaita/actions/16/zoom-fit-height.svg

<svg height="16" viewBox="0 0 16 16" width="16" xmlns="http://www.w3.org/2000/svg"><g fill="#424242"><path d="m9.929688 5.082031c0-.078125-.03125-.152343-.078126-.210937l-1.65625-1.984375c-.136718-.164063-.386718-.164063-.523437 0l-1.65625 1.984375c-.183594.222656-.027344.5625.265625.5625h3.304688c.195312 0 .351562-.160156.34375-.351563zm0 0"/><path d="m9.929688 11.046875c0 .074219-.03125.148437-.078126.207031l-1.65625 1.984375c-.136718.164063-.386718.164063-.523437 0l-1.65625-1.984375c-.183594-.222656-.027344-.5625.265625-.5625h3.304688c.195312 0 .351562.160156.34375.355469zm0 0"/><path d="m2.644531 1.449219c-.730469 0-1.320312.589843-1.320312 1.320312v2.648438h1.320312v-1.984375c0-.367188.296875-.664063.664063-.664063h1.984375v-1.320312zm7.941407 0v1.320312h1.984374c.363282 0 .660157.296875.660157.664063v1.984375h1.324219v-2.648438c0-.730469-.589844-1.320312-1.324219-1.320312zm-9.261719 9.261719v2.644531c0 .734375.589843 1.324219 1.320312 1.324219h2.648438v-1.324219h-1.984375c-.367188 0-.664063-.296875-.664063-.660157v-1.984374zm11.90625 0v1.984374c0 .363282-.296875.660157-.660157.660157h-1.984374v1.324219h2.644531c.734375 0 1.324219-.589844 1.324219-1.324219v-2.644531zm0 0"/></g></svg>

<?xml version="1.0" encoding="UTF-8"?>
<svg xmlns="http://www.w3.org/2000/svg" xmlns:xlink="http://www.w3.org/1999/xlink" width="16px" height="16px" viewBox="0 0 16 16" version="1.1">
<g id="surface1">
<path style=" stroke:none;fill-rule:nonzero;fill:rgb(25.882354%,25.882354%,25.882354%);fill-opacity:1;" d="M 9.929688 5.082031 C 9.929688 5.003906 9.898438 4.929688 9.851562 4.871094 L 8.195312 2.886719 C 8.058594 2.722656 7.808594 2.722656 7.671875 2.886719 L 6.015625 4.871094 C 5.832031 5.09375 5.988281 5.433594 6.28125 5.433594 L 9.585938 5.433594 C 9.78125 5.433594 9.9375 5.273438 9.929688 5.082031 Z M 9.929688 5.082031 "/>
<path style=" stroke:none;fill-rule:nonzero;fill:rgb(25.882354%,25.882354%,25.882354%);fill-opacity:1;" d="M 9.929688 11.046875 C 9.929688 11.121094 9.898438 11.195312 9.851562 11.253906 L 8.195312 13.238281 C 8.058594 13.402344 7.808594 13.402344 7.671875 13.238281 L 6.015625 11.253906 C 5.832031 11.03125 5.988281 10.691406 6.28125 10.691406 L 9.585938 10.691406 C 9.78125 10.691406 9.9375 10.851562 9.929688 11.046875 Z M 9.929688 11.046875 "/>
<path style=" stroke:none;fill-rule:nonzero;fill:rgb(25.882354%,25.882354%,25.882354%);fill-opacity:1;" d="M 2.644531 1.449219 C 1.914062 1.449219 1.324219 2.039062 1.324219 2.769531 L 1.324219 5.417969 L 2.644531 5.417969 L 2.644531 3.433594 C 2.644531 3.066406 2.941406 2.769531 3.308594 2.769531 L 5.292969 2.769531 L 5.292969 1.449219 Z M 10.585938 1.449219 L 10.585938 2.769531 L 12.570312 2.769531 C 12.933594 2.769531 13.230469 3.066406 13.230469 3.433594 L 13.230469 5.417969 L 14.554688 5.417969 L 14.554688 2.769531 C 14.554688 2.039062 13.964844 1.449219 13.230469 1.449219 Z M 1.324219 10.710938 L 1.324219 13.355469 C 1.324219 14.089844 1.914062 14.679688 2.644531 14.679688 L 5.292969 14.679688 L 5.292969 13.355469 L 3.308594 13.355469 C 2.941406 13.355469 2.644531 13.058594 2.644531 12.695312 L 2.644531 10.710938 Z M 13.230469 10.710938 L 13.230469 12.695312 C 13.230469 13.058594 12.933594 13.355469 12.570312 13.355469 L 10.585938 13.355469 L 10.585938 14.679688 L 13.230469 14.679688 C 13.964844 14.679688 14.554688 14.089844 14.554688 13.355469 L 14.554688 10.710938 Z M 13.230469 10.710938 "/>
</g>
</svg>
